!!!OTL: SPIELT MIR MAL DIE SIEBEN SPRUENGE
!!!ARE: Europa, Mitteleuropa, Deutschland, Uckermark, Grenzow
!!!SCT: E0992A
!!!YEM: Copyright 1995, estate of Helmut Schaffrath.
**kern
*ICvox
*Ivox
*M2/4
*k[f#]
*G:
=1
{8g
8b
8dd
8b
=2
8cc
8a
8b
8g}
=3
{8g
8b
8dd
8b
=4
8cc
8a
4g}
=5
{8a
8a
8a
8a
=6
8a
8f#
4d}
=7
{8a
8a
8a
8a
=8
8a
8f#
8d}
{8dd
=9
4.b
8dd
=10
2b}
==
!!!AGN: Tanz - Lied, Reigen, Siebensprung
!!!ONB: ESAC (Essen Associative Code) Database: ERK2
!!!AMT: simple duple
!!!AIN: vox
!!!EED: Helmut Schaffrath
!!!EEV: 1.0
*-
